  Extruder(0.800)
  speed_ms    = 0.030
  movel(p[0.009757, -0.460243, 0.121700, -0.000000, 3.141593, -0.000000],accel_mss,speed_ms,0,0.000)
  speed_ms    = 0.020
  Extruder(0.010)
  movel(p[0.009489, -0.460227, 0.121700, 0.000000, 3.141593, -0.000000],accel_mss,speed_ms,0,0.000)
  Extruder(0.009)
  movel(p[0.009221, -0.460211, 0.121700, 0.000000, 3.141593, -0.000000],accel_mss,speed_ms,0,0.000)
  Extruder(0.569)
  movel(p[-0.009221, -0.460211, 0.121700, -0.000000, 3.141593, -0.000000],accel_mss,speed_ms,0,blend_radius_m)
  Extruder(0.009)
  movel(p[-0.009489, -0.460227, 0.121700, -0.000000, 3.141593, -0.000000],accel_mss,speed_ms,0,0.000)

  Extruder(0.010)
  movel(p[-0.009757, -0.460243, 0.121700, -0.000000, 3.141593, -0.000000],accel_mss,speed_ms,0,0.000)
  Extruder(0.010)
  movel(p[-0.009773, -0.460511, 0.121700, -0.000000, 3.141593, -0.000000],accel_mss,speed_ms,0,0.000)
  Extruder(0.009)
  movel(p[-0.009789, -0.460779, 0.121700, -0.000000, 3.141593, -0.000000],accel_mss,speed_ms,0,0.000)
  Extruder(0.569)
  movel(p[-0.009789, -0.479221, 0.121700, 0.000000, 3.141593, -0.000000],accel_mss,speed_ms,0,blend_radius_m)

  Extruder(0.009)
  movel(p[-0.009773, -0.479489, 0.121700, 0.000000, 3.141593, -0.000000],accel_mss,speed_ms,0,0.000)

  Extruder(0.010)
  movel(p[-0.009757, -0.479757, 0.121700, -0.000000, 3.141593, -0.000000],accel_mss,speed_ms,0,0.000)
  Extruder(0.010)
  movel(p[-0.009489, -0.479773, 0.121700, -0.000000, 3.141593, -0.000000],accel_mss,speed_ms,0,0.000)
  Extruder(0.009)
  movel(p[-0.009221, -0.479789, 0.121700, -0.000000, 3.141593, -0.000000],accel_mss,speed_ms,0,0.000)
  Extruder(0.569)
  movel(p[0.009221, -0.479789, 0.121700, 0.000000, 3.141593, 0.000000],accel_mss,speed_ms,0,blend_radius_m)
  Extruder(0.009)
  movel(p[0.009489, -0.479773, 0.121700, 0.000000, 3.141593, -0.000000],accel_mss,speed_ms,0,0.000)

  Extruder(0.010)
  movel(p[0.009757, -0.479757, 0.121700, 0.000000, 3.141593, -0.000000],accel_mss,speed_ms,0,0.000)
  Extruder(0.019)
  movel(p[0.009789, -0.479221, 0.121700, -0.000000, 3.141593, -0.000000],accel_mss,speed_ms,0,0.000)
  Extruder(0.569)
  movel(p[0.009789, -0.460779, 0.121700, -0.000000, 3.141593, -0.000000],accel_mss,speed_ms,0,blend_radius_m)
  Extruder(0.009)
  movel(p[0.009773, -0.460511, 0.121700, -0.000000, 3.141593, -0.000000],accel_mss,speed_ms,0,0.000)

  Extruder(0.008)
  movel(p[0.009759, -0.460283, 0.121700, 0.000000, 3.141593, -0.000000],accel_mss,speed_ms,0,0.000)
  speed_ms    = 0.350
  movel(p[0.009411, -0.460779, 0.121700, -0.000000, 3.141593, 0.000000],accel_mss,speed_ms,0,0.000)
  speed_ms    = 0.020
  Extruder(0.003)
  movel(p[0.009394, -0.460700, 0.121700, 0.000000, 3.141593, 0.000000],accel_mss,speed_ms,0,0.000)
  Extruder(0.003)
  movel(p[0.009378, -0.460622, 0.121700, 0.000000, 3.141593, -0.000000],accel_mss,speed_ms,0,0.000)
  Extruder(0.003)
  movel(p[0.009300, -0.460606, 0.121700, -0.000000, 3.141593, -0.000000],accel_mss,speed_ms,0,0.000)
  Extruder(0.003)
  movel(p[0.009221, -0.460589, 0.121700, -0.000000, 3.141593, 0.000000],accel_mss,speed_ms,0,0.000)
  Extruder(0.569)
  movel(p[-0.009221, -0.460589, 0.121700, -0.000000, 3.141593, 0.000000],accel_mss,speed_ms,0,blend_radius_m)
  Extruder(0.003)
  movel(p[-0.009300, -0.460606, 0.121700, 0.000000, 3.141593, -0.000000],accel_mss,speed_ms,0,0.000)

  Extruder(0.003)
  movel(p[-0.009378, -0.460622, 0.121700, 0.000000, 3.141593, -0.000000],accel_mss,speed_ms,0,0.000)
  Extruder(0.003)
  movel(p[-0.009394, -0.460700, 0.121700, 0.000000, 3.141593, -0.000000],accel_mss,speed_ms,0,0.000)
  Extruder(0.003)
  movel(p[-0.009411, -0.460779, 0.121700, -0.000000, 3.141593, -0.000000],accel_mss,speed_ms,0,0.000)
  Extruder(0.569)
  movel(p[-0.009411, -0.479221, 0.121700, -0.000000, 3.141593, -0.000000],accel_mss,speed_ms,0,blend_radius_m)
  Extruder(0.003)
  movel(p[-0.009394, -0.479300, 0.121700, -0.000000, 3.141593, -0.000000],accel_mss,speed_ms,0,0.000)

  Extruder(0.003)
  movel(p[-0.009378, -0.479378, 0.121700, -0.000000, 3.141593, -0.000000],accel_mss,speed_ms,0,0.000)
  Extruder(0.003)
  movel(p[-0.009300, -0.479394, 0.121700, -0.000000, 3.141593, -0.000000],accel_mss,speed_ms,0,0.000)
  Extruder(0.003)
  movel(p[-0.009221, -0.479411, 0.121700, -0.000000, 3.141593, -0.000000],accel_mss,speed_ms,0,0.000)
  Extruder(0.569)
  movel(p[0.009221, -0.479411, 0.121700, -0.000000, 3.141593, 0.000000],accel_mss,speed_ms,0,blend_radius_m)
  Extruder(0.003)
  movel(p[0.009300, -0.479394, 0.121700, 0.000000, 3.141593, 0.000000],accel_mss,speed_ms,0,0.000)

  Extruder(0.003)
  movel(p[0.009378, -0.479378, 0.121700, 0.000000, 3.141593, 0.000000],accel_mss,speed_ms,0,0.000)
  Extruder(0.003)
  movel(p[0.009394, -0.479300, 0.121700, 0.000000, 3.141593, -0.000000],accel_mss,speed_ms,0,0.000)
  Extruder(0.003)
  movel(p[0.009411, -0.479221, 0.121700, -0.000000, 3.141593, -0.000000],accel_mss,speed_ms,0,0.000)
  Extruder(0.568)
  movel(p[0.009411, -0.460819, 0.121700, -0.000000, 3.141593, -0.000000],accel_mss,speed_ms,0,blend_radius_m)
  M_RunCode(106)
  Extruder(0.000)
  M_RunCode(140)
  speed_ms    = 0.350
  movel(p[0.009757, -0.460243, 0.121900, -0.000000, 3.141593, -0.000000],accel_mss,speed_ms,0,0.000)

  speed_ms    = 0.020
  movel(p[0.009757, -0.460243, 0.121900, -0.000000, 3.141593, -0.000000],accel_mss,speed_ms,0,0.000)
  Extruder(0.010)
  movel(p[0.009489, -0.460227, 0.121900, 0.000000, 3.141593, -0.000000],accel_mss,speed_ms,0,0.000)
  Extruder(0.009)
  movel(p[0.009221, -0.460211, 0.121900, 0.000000, 3.141593, -0.000000],accel_mss,speed_ms,0,0.000)
  Extruder(0.569)
  movel(p[-0.009221, -0.460211, 0.121900, -0.000000, 3.141593, -0.000000],accel_mss,speed_ms,0,blend_radius_m)
  Extruder(0.009)
  movel(p[-0.009489, -0.460227, 0.121900, -0.000000, 3.141593, -0.000000],accel_mss,speed_ms,0,0.000)

  Extruder(0.010)
  movel(p[-0.009757, -0.460243, 0.121900, -0.000000, 3.141593, -0.000000],accel_mss,speed_ms,0,0.000)

  Extruder(0.010)
  movel(p[-0.009773, -0.460511, 0.121900, -0.000000, 3.141593, -0.000000],accel_mss,speed_ms,0,0.000)
  Extruder(0.009)
  movel(p[-0.009789, -0.460779, 0.121900, -0.000000, 3.141593, -0.000000],accel_mss,speed_ms,0,0.000)
  Extruder(0.569)
  movel(p[-0.009789, -0.479221, 0.121900, 0.000000, 3.141593, -0.000000],accel_mss,speed_ms,0,blend_radius_m)
  Extruder(0.009)
  movel(p[-0.009773, -0.479489, 0.121900, 0.000000, 3.141593, -0.000000],accel_mss,speed_ms,0,0.000)

  Extruder(0.010)
  movel(p[-0.009757, -0.479757, 0.121900, -0.000000, 3.141593, -0.000000],accel_mss,speed_ms,0,0.000)
  Extruder(0.010)
  movel(p[-0.009489, -0.479773, 0.121900, -0.000000, 3.141593, -0.000000],accel_mss,speed_ms,0,0.000)
  Extruder(0.009)
  movel(p[-0.009221, -0.479789, 0.121900, -0.000000, 3.141593, 0.000000],accel_mss,speed_ms,0,0.000)
  Extruder(0.569)
  movel(p[0.009221, -0.479789, 0.121900, 0.000000, 3.141593, -0.000000],accel_mss,speed_ms,0,blend_radius_m)
  Extruder(0.009)
  movel(p[0.009489, -0.479773, 0.121900, 0.000000, 3.141593, -0.000000],accel_mss,speed_ms,0,0.000)

  Extruder(0.010)
  movel(p[0.009757, -0.479757, 0.121900, 0.000000, 3.141593, -0.000000],accel_mss,speed_ms,0,0.000)
  Extruder(0.019)
  movel(p[0.009789, -0.479221, 0.121900, -0.000000, 3.141593, -0.000000],accel_mss,speed_ms,0,0.000)
  Extruder(0.569)
  movel(p[0.009789, -0.460779, 0.121900, -0.000000, 3.141593, -0.000000],accel_mss,speed_ms,0,blend_radius_m)
  Extruder(0.009)
  movel(p[0.009773, -0.460511, 0.121900, -0.000000, 3.141593, -0.000000],accel_mss,speed_ms,0,0.000)

  Extruder(0.008)
  movel(p[0.009759, -0.460283, 0.121900, 0.000000, 3.141593, -0.000000],accel_mss,speed_ms,0,0.000)
  speed_ms    = 0.350
  movel(p[0.009300, -0.460606, 0.121900, -0.000000, 3.141593, -0.000000],accel_mss,speed_ms,0,0.000)
  speed_ms    = 0.020
  Extruder(0.003)
  movel(p[0.009221, -0.460589, 0.121900, -0.000000, 3.141593, -0.000000],accel_mss,speed_ms,0,0.000)
  Extruder(0.569)
  movel(p[-0.009221, -0.460589, 0.121900, -0.000000, 3.141593, -0.000000],accel_mss,speed_ms,0,blend_radius_m)
  Extruder(0.003)
  movel(p[-0.009300, -0.460606, 0.121900, 0.000000, 3.141593, -0.000000],accel_mss,speed_ms,0,0.000)

  Extruder(0.003)
  movel(p[-0.009378, -0.460622, 0.121900, 0.000000, 3.141593, 0.000000],accel_mss,speed_ms,0,0.000)
  Extruder(0.003)
  movel(p[-0.009394, -0.460700, 0.121900, 0.000000, 3.141593, -0.000000],accel_mss,speed_ms,0,0.000)
  Extruder(0.003)
  movel(p[-0.009411, -0.460779, 0.121900, -0.000000, 3.141593, -0.000000],accel_mss,speed_ms,0,0.000)
  Extruder(0.569)
  movel(p[-0.009411, -0.479221, 0.121900, -0.000000, 3.141593, -0.000000],accel_mss,speed_ms,0,blend_radius_m)
  Extruder(0.003)
  movel(p[-0.009394, -0.479300, 0.121900, -0.000000, 3.141593, -0.000000],accel_mss,speed_ms,0,0.000)

  Extruder(0.003)
  movel(p[-0.009378, -0.479378, 0.121900, -0.000000, 3.141593, -0.000000],accel_mss,speed_ms,0,0.000)
  Extruder(0.003)
  movel(p[-0.009300, -0.479394, 0.121900, -0.000000, 3.141593, -0.000000],accel_mss,speed_ms,0,0.000)
  Extruder(0.003)
  movel(p[-0.009221, -0.479411, 0.121900, -0.000000, 3.141593, -0.000000],accel_mss,speed_ms,0,0.000)
  Extruder(0.569)
  movel(p[0.009221, -0.479411, 0.121900, -0.000000, 3.141593, -0.000000],accel_mss,speed_ms,0,blend_radius_m)
  Extruder(0.003)
  movel(p[0.009300, -0.479394, 0.121900, 0.000000, 3.141593, -0.000000],accel_mss,speed_ms,0,0.000)

  Extruder(0.003)
  movel(p[0.009378, -0.479378, 0.121900, 0.000000, 3.141593, -0.000000],accel_mss,speed_ms,0,0.000)
  Extruder(0.003)
  movel(p[0.009394, -0.479300, 0.121900, -0.000000, 3.141593, -0.000000],accel_mss,speed_ms,0,0.000)
  Extruder(0.003)
  movel(p[0.009411, -0.479221, 0.121900, -0.000000, 3.141593, -0.000000],accel_mss,speed_ms,0,0.000)
  Extruder(0.569)
  movel(p[0.009411, -0.460779, 0.121900, -0.000000, 3.141593, -0.000000],accel_mss,speed_ms,0,blend_radius_m)
  Extruder(0.003)
  movel(p[0.009394, -0.460700, 0.121900, 0.000000, 3.141593, -0.000000],accel_mss,speed_ms,0,0.000)

  Extruder(0.003)
  movel(p[0.009378, -0.460622, 0.121900, 0.000000, 3.141593, -0.000000],accel_mss,speed_ms,0,0.000)
  Extruder(0.001)
  movel(p[0.009339, -0.460614, 0.121900, -0.000000, 3.141593, -0.000000],accel_mss,speed_ms,0,0.000)
  Extruder(0.000)
  speed_ms    = 0.350
  movel(p[0.009757, -0.460243, 0.122100, -0.000000, 3.141593, 0.000000],accel_mss,speed_ms,0,0.000)

